packages/ui-icons/src/Service-logos/24/Snapchat.svg

<?xml version="1.0" encoding="UTF-8"?>
<svg viewBox="0 0 32 32" version="1.1" xmlns="http://www.w3.org/2000/svg" xmlns:xlink="http://www.w3.org/1999/xlink">
    <!-- Generator: Sketch 48.2 (47327) - http://www.bohemiancoding.com/sketch -->
    <title>logo/24/snapchat</title>
    <desc>Created with Sketch.</desc>
    <defs></defs>
    <g id="Icons" stroke="none" stroke-width="1" fill="none" fill-rule="evenodd">
        <g id="logo/24/snapchat">
            <g id="snapchat" transform="translate(4.000000, 4.000000)">
                <circle id="Oval-2-Copy" fill="#FFFC00" cx="12" cy="12" r="12"></circle>
                <path d="M12.1267692,5.00061538 C12.736,5.00061538 14.8018462,5.17046154 15.776,7.352 C16.1015385,8.08615385 16.024,9.33292308 15.96,10.3347692 L15.9581538,10.3716923 C15.9507692,10.4824615 15.9446154,10.584 15.9396923,10.6855385 C15.9858462,10.7132308 16.0646154,10.7409231 16.1864615,10.7409231 C16.3710769,10.7310769 16.592,10.6670769 16.8221538,10.5556923 C16.9236923,10.5015385 17.0338462,10.4916923 17.1076923,10.4916923 C17.2196923,10.4916923 17.3286154,10.5095385 17.4209231,10.5470769 C17.6978462,10.6387692 17.8726154,10.8418462 17.8726154,11.0627692 C17.8818462,11.3390769 17.6326154,11.5790769 17.1261538,11.7815385 C17.0713846,11.7993846 16.9975385,11.8276923 16.9144615,11.8547692 C16.6375385,11.9378462 16.2135385,12.0763077 16.0941538,12.3532308 C16.0387692,12.4910769 16.0566154,12.6756923 16.168,12.8873846 L16.1772308,12.8966154 C16.2141538,12.9803077 17.1163077,15.0350769 19.1255385,15.3667692 C19.2824615,15.3938462 19.3932308,15.5329231 19.384,15.68 C19.384,15.7261538 19.3747692,15.7716923 19.3563077,15.8184615 C19.2086154,16.1686154 18.5729231,16.4264615 17.4203077,16.6006154 C17.384,16.6566154 17.3464615,16.8313846 17.3193846,16.9513846 C17.3015385,17.0615385 17.2738462,17.1729231 17.2369231,17.2916923 C17.1901538,17.4584615 17.0707692,17.5409231 16.8953846,17.5409231 L16.8769231,17.5409231 C16.7938462,17.5409231 16.6843077,17.5218462 16.5458462,17.4953846 C16.3243077,17.4492308 16.0750769,17.4123077 15.7624615,17.4123077 C15.5778462,17.4123077 15.3938462,17.4215385 15.2006154,17.4578462 C14.8313846,17.5218462 14.5095385,17.7433846 14.1403077,18.0018462 C13.6153846,18.3704615 13.0166154,18.7944615 12.1132308,18.7944615 C12.0763077,18.7944615 12.04,18.7852308 12.0024615,18.7852308 L11.9107692,18.7852308 C11.0073846,18.7852308 10.4172308,18.3698462 9.89292308,17.9926154 C9.52430769,17.7341538 9.21169231,17.5132308 8.84246154,17.4486154 C8.64923077,17.4209231 8.45538462,17.4030769 8.27138462,17.4030769 C7.93907692,17.4030769 7.68184615,17.4578462 7.48861538,17.4947692 C7.35876923,17.5212308 7.248,17.5403077 7.15630769,17.5403077 C6.92615385,17.5403077 6.83446154,17.4024615 6.79753846,17.2818462 C6.76,17.1636923 6.74215385,17.0424615 6.71446154,16.9329231 C6.68615385,16.8215385 6.64984615,16.6289231 6.61230769,16.5821538 C5.432,16.4455385 4.79692308,16.1870769 4.64984615,15.8276923 C4.63076923,15.7889231 4.61784615,15.7353846 4.616,15.6892308 C4.60676923,15.5396923 4.71753846,15.4030769 4.87446154,15.376 C6.88307692,15.0436923 7.78523077,12.9889231 7.82276923,12.9021538 L7.83261538,12.8843077 C7.94338462,12.672 7.97046154,12.4873846 7.90584615,12.3495385 C7.78584615,12.0824615 7.36184615,11.9446154 7.08615385,11.8516923 C7.01169231,11.8338462 6.93846154,11.8061538 6.87323077,11.7784615 C6.192,11.5107692 6.09969231,11.2061538 6.13661538,10.9950769 C6.192,10.7003077 6.55138462,10.5070769 6.85538462,10.5070769 C6.94523077,10.5070769 7.02153846,10.5249231 7.09107692,10.5526154 C7.34953846,10.672 7.57661538,10.7372308 7.77046154,10.7372308 C7.91446154,10.7372308 8.00676923,10.7003077 8.05661538,10.6726154 L8.02830769,10.3224615 C7.968,9.32184615 7.88984615,8.07569231 8.21723077,7.34584615 C9.16430769,5.17538462 11.224,5.00923077 11.832,5.00923077 L12.0898462,5 L12.1267692,5 L12.1267692,5.00061538 Z" id="Shape" stroke="#6B6B6B" fill="#FFFFFF" fill-rule="nonzero"></path>
            </g>
        </g>
    </g>
</svg>

<svg viewBox="0 0 32 32" xmlns="http://www.w3.org/2000/svg"><g transform="translate(4 4)" fill="none" fill-rule="evenodd"><circle fill="#FFFC00" cx="12" cy="12" r="12"/><path d="M12.127 5c.609 0 2.675.17 3.649 2.352.326.734.248 1.98.184 2.983l-.002.037-.018.314a.478.478 0 0 0 .246.055c.185-.01.406-.074.636-.185a.613.613 0 0 1 .286-.064c.112 0 .22.018.313.055.277.092.452.295.452.516.009.276-.24.516-.747.719-.055.017-.128.046-.212.073-.276.083-.7.221-.82.498-.055.138-.037.323.074.534l.01.01c.036.083.938 2.138 2.948 2.47a.307.307 0 0 1 .258.313c0 .046-.01.092-.028.138-.147.35-.783.608-1.936.783-.036.056-.074.23-.1.35-.018.11-.046.222-.083.34-.047.167-.166.25-.342.25h-.018c-.083 0-.193-.02-.331-.046a3.713 3.713 0 0 0-1.345-.037c-.37.064-.691.285-1.06.544-.526.368-1.124.792-2.028.792-.037 0-.073-.009-.11-.009h-.092c-.904 0-1.494-.415-2.018-.792-.369-.259-.681-.48-1.05-.544a4.075 4.075 0 0 0-.572-.046c-.332 0-.59.055-.782.092-.13.026-.241.045-.333.045-.23 0-.322-.138-.358-.258-.038-.118-.056-.24-.084-.35-.028-.11-.064-.303-.102-.35-1.18-.136-1.815-.395-1.962-.754a.37.37 0 0 1-.034-.139.305.305 0 0 1 .258-.313c2.01-.332 2.911-2.387 2.949-2.474l.01-.018c.11-.212.137-.397.073-.534-.12-.268-.544-.405-.82-.498a1.374 1.374 0 0 1-.213-.074c-.681-.267-.773-.572-.736-.783.055-.295.414-.488.718-.488.09 0 .167.018.236.046.259.119.486.184.68.184a.582.582 0 0 0 .286-.064l-.029-.35c-.06-1.001-.138-2.247.19-2.977.946-2.17 3.006-2.337 3.614-2.337L12.09 5h.037Z" stroke="#6B6B6B" fill="#FFF" fill-rule="nonzero"/></g></svg>
